X:1
T:Title
%%score { ( 1 4 ) | ( 2 3 ) }
L:1/8
Q:1/4=106
M:4/4
K:F
V:1 treble nm="Grand Piano"
V:4 treble 
V:2 bass 
V:3 bass 
V:1
 A2 A2 A2 A2 | [FA]2 [EG]^F [CEG]2 z2 | [E,C]2 [G,CE][K:treble][CEG] [Ec]2 z2 | %3
w: JU.~O.~Hillyer * * *|||
 [EB]2 [EA][EG] A2 z2 | A2 A2 A2 A2 | [DA]2 .[DG]2 [B,DG]2 z2 | [Fc]2 [F=B][Fc] [E_B]2 z2 | %7
w: ||||
 [G,CE]2 [CEA][B,EG] [A,F]2 z2 | [Fd]2[K:bass][K:treble] z2 z4 | d2 c=B c2 z2 | %10
w: |||
 [Ac]2 [GB][FA] [GB]2 z2 | [EB]2 [EA][EG] A2 z2 | d2 d2 e2 d2 | d2 c=B c2 z2 | %14
w: ||||
 [Ec]2 [EG][EA] [EB]2 E2 |[M:3/4] F6 |] %16
w: ||
V:2
 [F,CF]2 [F,CF]2 [F,CF]2 [F,CF]2 | [C,C]2 z _E C,2 z2 | C,2 C,C, [C,G,]2 z2 | %3
 [C,C]2 [C,C][C,C] [F,CF]2 z2 | [F,CF]2 [F,CF]2 [F,CF]2 [F,CF]2 | [B,,B,]2 z ^F B,,2 z2 | %6
 [C,A,]2 [C,_A,][C,=A,] [C,G,]2 z2 | C,2 C,C, F,2 z2 | .[B,,B,]2 [B,,B,]2 [D,B,]2 [F,B,F]2 | %9
 [F,B,F]2 [F,F]-[F,_A,F] [F,=A,F]2 z2 | [C,C]2 [C,C][C,C] [C,C]2 z2 | %11
 [C,C]2 [C,C][C,C] [F,CF]2 z2 | [B,F]2 [B,F]2 [B,CF]2 [B,F]2 | %13
 [F,B,F]2 [F,F]-[F,_A,F] [F,=A,F]2 z2 | [C,G,]2 [C,B,][C,A,] [C,G,]2 [C,B,C]2 |[M:3/4] [F,A,C]6 |] %16
V:3
 x8 | z2 [C,C]2 z4 | x8 | x8 | x8 | z2 [B,,B,]2 z4 | x8 | x8 | x8 | z2 .A,2 z4 | x8 | x8 | x8 | %13
 z2 .A,2 z4 | x8 |[M:3/4] x6 |] %16
V:4
 x8 | x8 | x3[K:treble] x5 | x8 | x8 | x8 | x8 | x8 | z[K:bass] A,,[K:treble] [Fd]2 [Fe]2 d2 | x8 | %10
 x8 | x8 | x8 | x8 | x8 |[M:3/4] x6 |] %16

